LillyModIcon.svg

<?xml version="1.0" encoding="UTF-8" standalone="no"?>
<!-- Created with Inkscape (http://www.inkscape.org/) -->

<svg xmlns:osb="http://www.openswatchbook.org/uri/2009/osb" xmlns:dc="http://purl.org/dc/elements/1.1/" xmlns:cc="http://creativecommons.org/ns#" xmlns:rdf="http://www.w3.org/1999/02/22-rdf-syntax-ns#" xmlns:svg="http://www.w3.org/2000/svg" xmlns="http://www.w3.org/2000/svg" xmlns:sodipodi="http://sodipodi.sourceforge.net/DTD/sodipodi-0.dtd" xmlns:inkscape="http://www.inkscape.org/namespaces/inkscape" width="512" height="512" viewBox="0 0 512 512" id="svg4134" version="1.1" inkscape:version="0.91 r13725" inkscape:export-filename="C:\Users\Nire Inicana\Downloads\LillyModIcon.png" inkscape:export-xdpi="90" inkscape:export-ydpi="90" sodipodi:docname="LillyModIcon.svg">
  <defs id="defs4136">
    <linearGradient id="linearGradient6071" osb:paint="solid">
      <stop style="stop-color:black;stop-opacity:1" offset="0" id="stop6073" />
    </linearGradient>
    <filter style="color-interpolation-filters:sRGB" inkscape:label="Drop Shadow" id="filter6006">
      <feFlood flood-opacity="1" flood-color="rgb(0,0,0)" result="flood" id="feFlood6008" />
      <feComposite in="flood" in2="SourceGraphic" operator="in" result="composite1" id="feComposite6010" />
      <feGaussianBlur in="composite1" stdDeviation="10" result="blur" id="feGaussianBlur6012" />
      <feOffset dx="5" dy="5" result="offset" id="feOffset6014" />
      <feComposite in="SourceGraphic" in2="offset" operator="over" result="composite2" id="feComposite6016" />
    </filter>
  </defs>
  <sodipodi:namedview id="base" pagecolor="#ffffff" bordercolor="#666666" borderopacity="1.0" inkscape:pageopacity="0.0" inkscape:pageshadow="2" inkscape:zoom="1.1628592" inkscape:cx="393.58286" inkscape:cy="227.34242" inkscape:document-units="px" inkscape:current-layer="layer3" showgrid="false" units="px" inkscape:window-width="1920" inkscape:window-height="1017" inkscape:window-x="-8" inkscape:window-y="-8" inkscape:window-maximized="1" />
  <metadata id="metadata4139">
    <rdf:RDF>
      <cc:Work rdf:about="">
        <dc:format>image/svg+xml</dc:format>
        <dc:type rdf:resource="http://purl.org/dc/dcmitype/StillImage" />
        <dc:title></dc:title>
      </cc:Work>
    </rdf:RDF>
  </metadata>
  <g inkscape:groupmode="layer" id="layer2" inkscape:label="Layer 2">
    <path style="opacity:1;fill:#b7c4c8;fill-opacity:1;stroke:none;stroke-width:15;stroke-linecap:square;stroke-miterlimit:4;stroke-dasharray:none" d="M 0,2.1570134 C 0,172.10468 0,342.05234 0,512 c 170.66667,0 341.33333,0 512,0 -10e-6,-170.66667 0,-341.33334 0,-512 C 341.33333,0 170.66667,0 0,0 l 0,1.0785067 0,1.0785067 z" id="rect4706" inkscape:connector-curvature="0" />
  </g>
  <g inkscape:label="Layer 1" inkscape:groupmode="layer" id="layer1" transform="translate(0,-540.36216)">
    <path inkscape:connector-curvature="0" style="fill:#ff5370;fill-opacity:1;stroke:none" d="m 328.21044,594.56122 c -0.88264,0.0113 -1.78804,0.0545 -2.6875,0.125 -35.8236,6.1835 -55.5208,44.06435 -58.375,77.46875 -4.1707,30.3114 9.18705,69.2705 42.46875,76.0625 4.8275,0.9191 9.8436,0.49905 14.5625,-0.78125 40.0769,-13.4384 58.01175,-60.90305 52.21875,-100.21875 -1.68398,-25.39239 -20.82559,-53.00519 -48.1875,-52.65625 z m -151.875,1.625 c -22.27494,0.54678 -39.62659,23.1384 -43.15625,44.375 -7.4409,42.0743 11.69834,94.35185 55.53125,107.65625 4.1057,0.8929 8.3525,0.98485 12.5,0.34375 29.6264,-4.9375 42.177,-38.15385 40.9375,-64.96875 -0.8917,-35.3725 -19.2659,-76.27315 -56,-86.21875 -3.35779,-0.89041 -6.63037,-1.26561 -9.8125,-1.1875 z m 248.9375,119.5 c -38.5343,2.3054 -64.95265,40.75375 -68.71875,76.65625 -5.0996,25.8937 8.7049,60.52655 38.25,62.59375 41.1967,-0.5078 69.30105,-44.52855 70.46875,-82.40625 2.6058,-25.0513 -12.151,-55.46055 -40,-56.84375 z m -337.281254,8.53125 c -16.394003,-0.14105 -32.517581,9.67881 -37.875,26.34375 -14.2927,44.579 14.4089,101.03815 61.625004,110.40625 19.7056,3.3721 37.02035,-11.76085 41.90625,-29.96875 10.3546,-38.9448 -10.91335,-84.16525 -46.90625,-101.84375 -5.86393,-3.29091 -12.33496,-4.88231 -18.750004,-4.9375 z m 172.750004,79.9375 c -32.13937,0.0685 -64.78276,16.37818 -85.59375,40.65625 -22.4774,28.2972 -40.89025,61.2265 -48.09375,96.9375 -8.7514,25.70647 11.08339,55.29047 38.5625,55.46877 33.0589,0.9183 61.47075,-21.783 94.34375,-23.4688 27.8901,-4.2517 52.8631,10.2552 77.9375,19.75 21.3493,9.13131 50.8503,5.632 61.75,-17.3437 8.5736,-23.4187 -4.0459,-48.39002 -14.5,-69.18752 -21.3222,-33.757 -44.1651,-69.2358 -79.125,-90.3125 -14.01291,-8.6857 -29.58528,-12.53347 -45.28125,-12.5 z" id="path1575" />
    <path id="path4710" d="m 328.21044,594.56122 c -0.88264,0.0113 -1.78804,0.0545 -2.6875,0.125 -35.8236,6.1835 -55.5208,44.06435 -58.375,77.46875 -4.1707,30.3114 9.18705,69.2705 42.46875,76.0625 4.8275,0.9191 9.8436,0.49905 14.5625,-0.78125 40.0769,-13.4384 58.01175,-60.90305 52.21875,-100.21875 -1.68398,-25.39239 -20.82559,-53.00519 -48.1875,-52.65625 z m -151.875,1.625 c -22.27494,0.54678 -39.62659,23.1384 -43.15625,44.375 -7.4409,42.0743 11.69834,94.35185 55.53125,107.65625 4.1057,0.8929 8.3525,0.98485 12.5,0.34375 29.6264,-4.9375 42.177,-38.15385 40.9375,-64.96875 -0.8917,-35.3725 -19.2659,-76.27315 -56,-86.21875 -3.35779,-0.89041 -6.63037,-1.26561 -9.8125,-1.1875 z m 248.9375,119.5 c -38.5343,2.3054 -64.95265,40.75375 -68.71875,76.65625 -5.0996,25.8937 8.7049,60.52655 38.25,62.59375 41.1967,-0.5078 69.30105,-44.52855 70.46875,-82.40625 2.6058,-25.0513 -12.151,-55.46055 -40,-56.84375 z m -337.281254,8.53125 c -16.394003,-0.14105 -32.517581,9.67881 -37.875,26.34375 -14.2927,44.579 14.4089,101.03815 61.625004,110.40625 19.7056,3.3721 37.02035,-11.76085 41.90625,-29.96875 10.3546,-38.9448 -10.91335,-84.16525 -46.90625,-101.84375 -5.86393,-3.29091 -12.33496,-4.88231 -18.750004,-4.9375 z m 172.750004,79.9375 c -32.13937,0.0685 -64.78276,16.37818 -85.59375,40.65625 -22.4774,28.2972 -40.89025,61.2265 -48.09375,96.9375 -8.7514,25.70647 11.08339,55.29047 38.5625,55.46877 33.0589,0.9183 61.47075,-21.783 94.34375,-23.4688 27.8901,-4.2517 52.8631,10.2552 77.9375,19.75 21.3493,9.13131 50.8503,5.632 61.75,-17.3437 8.5736,-23.4187 -4.0459,-48.39002 -14.5,-69.18752 -21.3222,-33.757 -44.1651,-69.2358 -79.125,-90.3125 -14.01291,-8.6857 -29.58528,-12.53347 -45.28125,-12.5 z" style="fill:#ff5370;fill-opacity:1;stroke:black;stroke-opacity:1;stroke-width:3;stroke-miterlimit:4;stroke-dasharray:none;stroke-linejoin:round;stroke-linecap:butt;filter:url(#filter6006)" inkscape:connector-curvature="0" />
  </g>
  <g inkscape:groupmode="layer" id="layer3" inkscape:label="Layer 3">
    <g id="g6067" style="stroke:black;stroke-opacity:1;stroke-width:3;stroke-miterlimit:4;stroke-dasharray:none">
      <path d="m 0,0 512,0 0,512 -512,0 z M 42.306589,100 42.307,412 100,469.693 l 312,0 L 470.69259,412 470.693,100 412,41.307 l -312,0 z" style="fill:#0097ff;fill-rule:evenodd;stroke:black;stroke-width:3;stroke-linecap:butt;stroke-linejoin:miter;stroke-opacity:1;fill-opacity:1;stroke-miterlimit:4;stroke-dasharray:none" id="path6043" />
      <path sodipodi:nodetypes="cccccccccccccccccccccccccccccc" inkscape:connector-curvature="0" d="m 0,0 512,0 0,512 -512,0 z m 44.307,122.88 79.57268,-79.57251 39.78609,-4.9e-4 19.89305,-19.892559 145.88236,0 19.89305,19.893049 39.78609,0 79.57268,79.57219 -4.9e-4,39.7861 19.89305,19.89305 0,145.88234 -19.89305,19.89306 0,39.78609 -79.57219,79.57268 -39.78609,-4.8e-4 -19.89305,19.89304 -145.88236,0 -19.89305,-19.89304 -39.78609,0 -79.572194,-79.5722 0,-39.78609 -19.893047,-19.89306 0,-145.88234 19.893047,-19.89305 z" style="fill:white;fill-opacity:1;fill-rule:evenodd;stroke:black;stroke-width:3;stroke-linecap:butt;stroke-linejoin:miter;stroke-opacity:1;stroke-miterlimit:4;stroke-dasharray:none" id="path6037" />
    </g>
  </g>
  <g inkscape:groupmode="layer" id="layer4" inkscape:label="Layer 4">
    <text xml:space="preserve" style="font-style:normal;font-weight:normal;font-size:40px;line-height:125%;font-family:sans-serif;text-align:center;letter-spacing:0px;word-spacing:0px;text-anchor:middle;fill:black;fill-opacity:1;stroke:black;stroke-width:3;stroke-linecap:butt;stroke-linejoin:round;stroke-miterlimit:4;stroke-dasharray:none;stroke-opacity:1" x="255.44336" y="288.19727" id="text6030" sodipodi:linespacing="125%"><tspan sodipodi:role="line" id="tspan6032" x="255.44336" y="288.19727" style="font-style:normal;font-variant:normal;font-weight:500;font-stretch:normal;font-size:120px;font-family:Roboto;-inkscape-font-specification:'Roboto Medium';fill:#0cf;stroke:black;stroke-width:3;stroke-linecap:butt;stroke-linejoin:round;stroke-miterlimit:4;stroke-dasharray:none;stroke-opacity:1">LillyMod</tspan></text>
  </g>
</svg>

<?xml version="1.0" encoding="UTF-8" standalone="no"?>
<!-- Created with Inkscape (http://www.inkscape.org/) -->

<svg xmlns:osb="http://www.openswatchbook.org/uri/2009/osb" xmlns:dc="http://purl.org/dc/elements/1.1/" xmlns:cc="http://creativecommons.org/ns#" xmlns:rdf="http://www.w3.org/1999/02/22-rdf-syntax-ns#" xmlns:svg="http://www.w3.org/2000/svg" xmlns="http://www.w3.org/2000/svg" xmlns:sodipodi="http://sodipodi.sourceforge.net/DTD/sodipodi-0.dtd" xmlns:inkscape="http://www.inkscape.org/namespaces/inkscape" width="546.13336" height="546.13336" viewBox="0 0 512 512" id="svg4134" version="1.1" inkscape:version="0.92.0 r15299" inkscape:export-filename=".\LillyModIcon.png" inkscape:export-xdpi="90" inkscape:export-ydpi="90" sodipodi:docname="LillyModIcon.svg">
  <defs id="defs4136">
    <linearGradient id="linearGradient6071" osb:paint="solid">
      <stop style="stop-color:black;stop-opacity:1" offset="0" id="stop6073" />
    </linearGradient>
    <filter style="color-interpolation-filters:sRGB" inkscape:label="Drop Shadow" id="filter6006">
      <feFlood flood-opacity="1" flood-color="rgb(0,0,0)" result="flood" id="feFlood6008" />
      <feComposite in="flood" in2="SourceGraphic" operator="in" result="composite1" id="feComposite6010" />
      <feGaussianBlur in="composite1" stdDeviation="10" result="blur" id="feGaussianBlur6012" />
      <feOffset dx="5" dy="5" result="offset" id="feOffset6014" />
      <feComposite in="SourceGraphic" in2="offset" operator="over" result="composite2" id="feComposite6016" />
    </filter>
  </defs>
  <sodipodi:namedview id="base" pagecolor="#ffffff" bordercolor="#666666" borderopacity="1.0" inkscape:pageopacity="0.0" inkscape:pageshadow="2" inkscape:zoom="1.1628592" inkscape:cx="277.4897" inkscape:cy="227.34242" inkscape:document-units="px" inkscape:current-layer="layer4" showgrid="false" units="px" inkscape:window-width="1920" inkscape:window-height="1057" inkscape:window-x="1912" inkscape:window-y="-8" inkscape:window-maximized="1" />
  <metadata id="metadata4139">
    <rdf:RDF>
      <cc:Work rdf:about="">
        <dc:format>image/svg+xml</dc:format>
        <dc:type rdf:resource="http://purl.org/dc/dcmitype/StillImage" />
        <dc:title></dc:title>
      </cc:Work>
    </rdf:RDF>
  </metadata>
  <g inkscape:groupmode="layer" id="layer2" inkscape:label="Layer 2">
    <path style="opacity:1;fill:#b7c4c8;fill-opacity:1;stroke:none;stroke-width:15;stroke-linecap:square;stroke-miterlimit:4;stroke-dasharray:none" d="M 0,2.1570134 C 0,172.10468 0,342.05234 0,512 c 170.66667,0 341.33333,0 512,0 -10e-6,-170.66667 0,-341.33334 0,-512 C 341.33333,0 170.66667,0 0,0 v 1.0785067 z" id="rect4706" inkscape:connector-curvature="0" />
  </g>
  <g inkscape:label="Layer 1" inkscape:groupmode="layer" id="layer1" transform="translate(0,-540.36216)">
    <path inkscape:connector-curvature="0" style="fill:#ff5370;fill-opacity:1;stroke:none" d="m 328.21044,594.56122 c -0.88264,0.0113 -1.78804,0.0545 -2.6875,0.125 -35.8236,6.1835 -55.5208,44.06435 -58.375,77.46875 -4.1707,30.3114 9.18705,69.2705 42.46875,76.0625 4.8275,0.9191 9.8436,0.49905 14.5625,-0.78125 40.0769,-13.4384 58.01175,-60.90305 52.21875,-100.21875 -1.68398,-25.39239 -20.82559,-53.00519 -48.1875,-52.65625 z m -151.875,1.625 c -22.27494,0.54678 -39.62659,23.1384 -43.15625,44.375 -7.4409,42.0743 11.69834,94.35185 55.53125,107.65625 4.1057,0.8929 8.3525,0.98485 12.5,0.34375 29.6264,-4.9375 42.177,-38.15385 40.9375,-64.96875 -0.8917,-35.3725 -19.2659,-76.27315 -56,-86.21875 -3.35779,-0.89041 -6.63037,-1.26561 -9.8125,-1.1875 z m 248.9375,119.5 c -38.5343,2.3054 -64.95265,40.75375 -68.71875,76.65625 -5.0996,25.8937 8.7049,60.52655 38.25,62.59375 41.1967,-0.5078 69.30105,-44.52855 70.46875,-82.40625 2.6058,-25.0513 -12.151,-55.46055 -40,-56.84375 z m -337.281254,8.53125 c -16.394003,-0.14105 -32.517581,9.67881 -37.875,26.34375 -14.2927,44.579 14.4089,101.03815 61.625004,110.40625 19.7056,3.3721 37.02035,-11.76085 41.90625,-29.96875 10.3546,-38.9448 -10.91335,-84.16525 -46.90625,-101.84375 -5.86393,-3.29091 -12.33496,-4.88231 -18.750004,-4.9375 z m 172.750004,79.9375 c -32.13937,0.0685 -64.78276,16.37818 -85.59375,40.65625 -22.4774,28.2972 -40.89025,61.2265 -48.09375,96.9375 -8.7514,25.70647 11.08339,55.29047 38.5625,55.46877 33.0589,0.9183 61.47075,-21.783 94.34375,-23.4688 27.8901,-4.2517 52.8631,10.2552 77.9375,19.75 21.3493,9.13131 50.8503,5.632 61.75,-17.3437 8.5736,-23.4187 -4.0459,-48.39002 -14.5,-69.18752 -21.3222,-33.757 -44.1651,-69.2358 -79.125,-90.3125 -14.01291,-8.6857 -29.58528,-12.53347 -45.28125,-12.5 z" id="path1575" />
    <path id="path4710" d="m 328.21044,594.56122 c -0.88264,0.0113 -1.78804,0.0545 -2.6875,0.125 -35.8236,6.1835 -55.5208,44.06435 -58.375,77.46875 -4.1707,30.3114 9.18705,69.2705 42.46875,76.0625 4.8275,0.9191 9.8436,0.49905 14.5625,-0.78125 40.0769,-13.4384 58.01175,-60.90305 52.21875,-100.21875 -1.68398,-25.39239 -20.82559,-53.00519 -48.1875,-52.65625 z m -151.875,1.625 c -22.27494,0.54678 -39.62659,23.1384 -43.15625,44.375 -7.4409,42.0743 11.69834,94.35185 55.53125,107.65625 4.1057,0.8929 8.3525,0.98485 12.5,0.34375 29.6264,-4.9375 42.177,-38.15385 40.9375,-64.96875 -0.8917,-35.3725 -19.2659,-76.27315 -56,-86.21875 -3.35779,-0.89041 -6.63037,-1.26561 -9.8125,-1.1875 z m 248.9375,119.5 c -38.5343,2.3054 -64.95265,40.75375 -68.71875,76.65625 -5.0996,25.8937 8.7049,60.52655 38.25,62.59375 41.1967,-0.5078 69.30105,-44.52855 70.46875,-82.40625 2.6058,-25.0513 -12.151,-55.46055 -40,-56.84375 z m -337.281254,8.53125 c -16.394003,-0.14105 -32.517581,9.67881 -37.875,26.34375 -14.2927,44.579 14.4089,101.03815 61.625004,110.40625 19.7056,3.3721 37.02035,-11.76085 41.90625,-29.96875 10.3546,-38.9448 -10.91335,-84.16525 -46.90625,-101.84375 -5.86393,-3.29091 -12.33496,-4.88231 -18.750004,-4.9375 z m 172.750004,79.9375 c -32.13937,0.0685 -64.78276,16.37818 -85.59375,40.65625 -22.4774,28.2972 -40.89025,61.2265 -48.09375,96.9375 -8.7514,25.70647 11.08339,55.29047 38.5625,55.46877 33.0589,0.9183 61.47075,-21.783 94.34375,-23.4688 27.8901,-4.2517 52.8631,10.2552 77.9375,19.75 21.3493,9.13131 50.8503,5.632 61.75,-17.3437 8.5736,-23.4187 -4.0459,-48.39002 -14.5,-69.18752 -21.3222,-33.757 -44.1651,-69.2358 -79.125,-90.3125 -14.01291,-8.6857 -29.58528,-12.53347 -45.28125,-12.5 z" style="fill:#ff5370;fill-opacity:1;stroke:black;stroke-width:3;stroke-linecap:butt;stroke-linejoin:round;stroke-miterlimit:4;stroke-dasharray:none;stroke-opacity:1;filter:url(#filter6006)" inkscape:connector-curvature="0" />
  </g>
  <g inkscape:groupmode="layer" id="layer3" inkscape:label="Layer 3">
    <g id="g6067" style="stroke:black;stroke-width:3;stroke-miterlimit:4;stroke-dasharray:none;stroke-opacity:1">
      <path d="M 0,0 H 512 V 512 H 0 Z M 42.306589,100 42.307,412 100,469.693 H 412 L 470.69259,412 470.693,100 412,41.307 H 100 Z" style="fill:#0097ff;fill-opacity:1;fill-rule:evenodd;stroke:black;stroke-width:3;stroke-linecap:butt;stroke-linejoin:miter;stroke-miterlimit:4;stroke-dasharray:none;stroke-opacity:1" id="path6043" inkscape:connector-curvature="0" />
      <path sodipodi:nodetypes="cccccccccccccccccccccccccccccc" inkscape:connector-curvature="0" d="M 0,0 H 512 V 512 H 0 Z m 44.307,122.88 79.57268,-79.57251 39.78609,-4.9e-4 19.89305,-19.892559 h 145.88236 l 19.89305,19.893049 h 39.78609 l 79.57268,79.57219 -4.9e-4,39.7861 19.89305,19.89305 v 145.88234 l -19.89305,19.89306 v 39.78609 l -79.57219,79.57268 -39.78609,-4.8e-4 -19.89305,19.89304 H 183.55882 L 163.66577,467.69252 H 123.87968 L 44.307486,388.12032 V 348.33423 L 24.414439,328.44117 V 182.55883 l 19.893047,-19.89305 z" style="fill:white;fill-opacity:1;fill-rule:evenodd;stroke:black;stroke-width:3;stroke-linecap:butt;stroke-linejoin:miter;stroke-miterlimit:4;stroke-dasharray:none;stroke-opacity:1" id="path6037" />
    </g>
  </g>
  <g inkscape:groupmode="layer" id="layer4" inkscape:label="Layer 4">
    <text xml:space="preserve" style="font-style:normal;font-weight:normal;font-size:40px;line-height:125%;font-family:sans-serif;text-align:center;letter-spacing:0px;word-spacing:0px;text-anchor:middle;fill:black;fill-opacity:1;stroke:black;stroke-width:3;stroke-linecap:butt;stroke-linejoin:round;stroke-miterlimit:4;stroke-dasharray:none;stroke-opacity:1" x="263.5" y="278.5" id="text6030"><tspan sodipodi:role="line" id="tspan6032" x="263.5" y="278.5" style="font-style:normal;font-variant:normal;font-weight:500;font-stretch:normal;font-size:120px;font-family:Hobo;-inkscape-font-specification:'Hobo Medium';fill:#0cf;stroke:black;stroke-width:3;stroke-linecap:butt;stroke-linejoin:round;stroke-miterlimit:4;stroke-dasharray:none;stroke-opacity:1">LillyMod</tspan></text>
  </g>
</svg>
